src/assets/instagram.svg

<svg width="21" height="21" viewBox="0 0 21 21" fill="none" xmlns="http://www.w3.org/2000/svg">
<path d="M20.9466 6.17408C20.8974 5.05826 20.7169 4.29115 20.4584 3.62644C20.1917 2.92086 19.7814 2.28916 19.2438 1.76402C18.7186 1.23071 18.0826 0.816309 17.3851 0.553821C16.7164 0.295339 15.9531 0.114899 14.8371 0.0657021C13.7127 0.0123392 13.3558 0 10.5041 0C7.65239 0 7.29545 0.0123392 6.17525 0.0615356C5.05923 0.110732 4.29197 0.291333 3.62729 0.549654C2.92142 0.816309 2.28959 1.22655 1.76436 1.76402C1.23095 2.28916 0.816625 2.92503 0.553926 3.62243C0.295395 4.29115 0.114921 5.0541 0.0657146 6.16991C0.0123415 7.29406 0 7.65093 0 10.5021C0 13.3532 0.0123415 13.7101 0.0615474 14.8301C0.110753 15.9459 0.291388 16.713 0.549919 17.3777C0.816625 18.0833 1.23095 18.715 1.76436 19.2401C2.28959 19.7735 2.92558 20.1879 3.62312 20.4503C4.29197 20.7088 5.05506 20.8893 6.17125 20.9385C7.29128 20.9878 7.64838 21 10.5001 21C13.3518 21 13.7087 20.9878 14.8289 20.9385C15.9449 20.8893 16.7122 20.7088 17.3769 20.4503C18.7885 19.9047 19.9045 18.7889 20.4502 17.3777C20.7086 16.709 20.8892 15.9459 20.9385 14.8301C20.9877 13.7101 21 13.3532 21 10.5021C21 7.65093 20.9958 7.29406 20.9466 6.17408ZM19.0552 14.748C19.01 15.7736 18.8377 16.3275 18.6941 16.6967C18.3411 17.6115 17.6149 18.3376 16.6999 18.6905C16.3306 18.8341 15.7726 19.0063 14.7509 19.0514C13.643 19.1007 13.3107 19.1129 10.5083 19.1129C7.70576 19.1129 7.36934 19.1007 6.26549 19.0514C5.2397 19.0063 4.68578 18.8341 4.31649 18.6905C3.86114 18.5222 3.44665 18.2556 3.11023 17.9069C2.76146 17.5663 2.49475 17.1561 2.32646 16.7008C2.18285 16.3316 2.01055 15.7736 1.96551 14.7522C1.91614 13.6446 1.90396 13.3122 1.90396 10.5103C1.90396 7.7083 1.91614 7.37194 1.96551 6.26846C2.01055 5.24287 2.18285 4.68905 2.32646 4.31983C2.49475 3.86441 2.76146 3.45016 3.11439 3.11364C3.45483 2.76494 3.86514 2.49828 4.32066 2.33018C4.68994 2.1866 5.24804 2.01433 6.26966 1.96914C7.37751 1.91994 7.70993 1.9076 10.5123 1.9076C13.3189 1.9076 13.6512 1.91994 14.755 1.96914C15.7808 2.01433 16.3347 2.1866 16.704 2.33018C17.1594 2.49828 17.5739 2.76494 17.9103 3.11364C18.2591 3.45417 18.5258 3.86441 18.6941 4.31983C18.8377 4.68905 19.01 5.24687 19.0552 6.26846C19.1044 7.3761 19.1167 7.7083 19.1167 10.5103C19.1167 13.3122 19.1044 13.6404 19.0552 14.748Z" fill="white"/>
<path d="M10.5 6C8.01567 6 6 8.01554 6 10.5C6 12.9845 8.01567 15 10.5 15C12.9845 15 15 12.9845 15 10.5C15 8.01554 12.9845 6 10.5 6ZM10.5 13.419C8.88829 13.419 7.58096 12.1118 7.58096 10.5C7.58096 8.88816 8.88829 7.58096 10.5 7.58096C12.1118 7.58096 13.419 8.88816 13.419 10.5C13.419 12.1118 12.1118 13.419 10.5 13.419Z" fill="white"/>
<path d="M18 5.5C18 6.32835 17.3284 7 16.4999 7C15.6716 7 15 6.32835 15 5.5C15 4.67146 15.6716 4 16.4999 4C17.3284 4 18 4.67146 18 5.5Z" fill="white"/>
</svg>

<svg xmlns="http://www.w3.org/2000/svg" fill="none" viewBox="0 0 21 21">
  <path fill="#fff" d="M20.95 6.17a7.67 7.67 0 0 0-.5-2.54 5.12 5.12 0 0 0-1.2-1.87 5.17 5.17 0 0 0-1.86-1.2 7.7 7.7 0 0 0-2.55-.5A71.69 71.69 0 0 0 10.5 0C7.65 0 7.3.01 6.18.06a7.68 7.68 0 0 0-2.55.49c-.7.27-1.34.68-1.87 1.21a5.17 5.17 0 0 0-1.2 1.86 7.7 7.7 0 0 0-.5 2.55A71.65 71.65 0 0 0 0 10.5c0 2.85.01 3.21.06 4.33.05 1.12.23 1.88.49 2.55a5.25 5.25 0 0 0 3.07 3.07 7.7 7.7 0 0 0 2.55.49c1.12.05 1.48.06 4.33.06s3.2-.01 4.33-.06a7.67 7.67 0 0 0 2.55-.49 5.37 5.37 0 0 0 3.07-3.07 7.7 7.7 0 0 0 .49-2.55c.05-1.12.06-1.48.06-4.33s0-3.2-.05-4.33Zm-1.9 8.58a5.76 5.76 0 0 1-.36 1.95 3.48 3.48 0 0 1-1.99 2c-.37.13-.93.3-1.95.35-1.1.05-1.44.06-4.24.06-2.8 0-3.14 0-4.24-.06a5.76 5.76 0 0 1-1.95-.36 3.23 3.23 0 0 1-1.21-.78 3.27 3.27 0 0 1-.78-1.2 5.78 5.78 0 0 1-.36-1.96c-.05-1.1-.07-1.44-.07-4.24 0-2.8.02-3.14.07-4.24.04-1.03.21-1.58.36-1.95.16-.46.43-.87.78-1.2.34-.36.76-.62 1.21-.79.37-.14.93-.32 1.95-.36 1.1-.05 1.44-.06 4.24-.06 2.8 0 3.14.01 4.25.06a5.7 5.7 0 0 1 1.94.36c.46.17.87.43 1.21.78.35.34.62.75.78 1.21.15.37.32.93.37 1.95.04 1.1.06 1.44.06 4.24 0 2.8-.02 3.13-.06 4.24Z"/>
  <path fill="#fff" d="M10.5 6a4.5 4.5 0 1 0 0 9 4.5 4.5 0 0 0 0-9Zm0 7.42a2.92 2.92 0 1 1 0-5.84 2.92 2.92 0 0 1 0 5.84ZM18 5.5a1.5 1.5 0 1 1-3 0 1.5 1.5 0 0 1 3 0Z"/>
</svg>
